!!!OTL: Der feine Reiter
!!!ARE: Europa, Mitteleuropa, Deutschland
!!!SCT: A0434
!!!YEM: Copyright 1995, estate of Helmut Schaffrath.
**kern
*ICvox
*Ivox
*M4/4
*k[]
*C:
{4.e
8f
4g
4a
=1
2g
4g}
{4f
=2
2e
2d
=3
1c}
=4
{4.e
8f
4g
4a
=5
2g
4g}
{4f
=6
2e
2d
=7
1c}
=8
{4.b
8cc
4dd
4ee
=9
2dd
4dd}
{4cc
=10
2b
2a
=11
2.g
4g}
=12
{4.b
8cc
4dd
4ee
=13
2dd
4dd}
{4cc
=14
2b
2a
=15
2.g
4g}
=16
{2cc
2a
=17
2.g
4g
=18
2cc
2a
=19
2.g}
{4g
=20
2cc
4cc
4dd
=21
2cc
2b
=22
2cc
2a
=23
1g}
=24
{4.e
8f
4g
4a
=25
4.g
8g
4g}
{4f
=26
4e
4e
4d
4d
=27
1c}
==
!!!AGN: Romanze, Ballade, Lied, Jaegerlied
!! Sam Scheidt, Orgeltabulatur. Hamburg 1624 fol. 183.
!!!ONB: ESAC (Essen Associative Code) Database: ALTDEU
!!!AMT: simple quadruple
!!!AIN: vox
!!!EED: Helmut Schaffrath
!!!EEV: 1.0
*-
